svgs/sharp-thin/basket-shopping-minus.svg

<svg xmlns="http://www.w3.org/2000/svg" viewBox="0 0 576 512"><!--! Font Awesome Pro 6.6.0 by @fontawesome - https://fontawesome.com License - https://fontawesome.com/license (Commercial License) Copyright 2024 Fonticons, Inc. --><path d="M239 19.9l3.9-7L229 5.1l-3.9 7L123.3 192l-74.8 0L32 192 0 192l0 16 36 0 76 304 352 0 76-304 36 0 0-16-32 0-16.5 0-74.8 0L351 12.1l-3.9-7L333.1 13l3.9 7L434.3 192l-292.6 0L239 19.9zM52.5 208l471 0-72 288-327 0-72-288zM208 344l-8 0 0 16 8 0 160 0 8 0 0-16-8 0-160 0z"/></svg>

<svg xmlns="http://www.w3.org/2000/svg" viewBox="0 0 576 512"><!--! Font Awesome Pro 6.5.2 by @fontawesome - https://fontawesome.com License - https://fontawesome.com/license (Commercial License) Copyright 2024 Fonticons, Inc. --><path d="M239 19.9l3.9-7L229 5.1l-3.9 7L123.3 192H48.5 32 0v16H36l76 304H464l76-304h36V192H544 527.5 452.7L351 12.1l-3.9-7L333.1 13l3.9 7L434.3 192H141.7L239 19.9zM52.5 208h471l-72 288h-327l-72-288zM208 344h-8v16h8H368h8V344h-8H208z"/></svg>
